assets/icons/play1.svg

<svg width="25" height="24" viewBox="0 0 25 24" fill="none" xmlns="http://www.w3.org/2000/svg">
<g opacity="0.9">
<path d="M12.5 22.0005C18.0228 22.0005 22.5 17.5233 22.5 12.0005C22.5 6.47764 18.0228 2.00049 12.5 2.00049C6.97715 2.00049 2.5 6.47764 2.5 12.0005C2.5 17.5233 6.97715 22.0005 12.5 22.0005Z" stroke="white" stroke-width="1.5"/>
<path d="M10 11.2003V12.8007C10 14.32 10 15.0796 10.4558 15.3867C10.9115 15.6937 11.5348 15.354 12.7815 14.6746L14.2497 13.8743C15.7499 13.0567 16.5 12.6479 16.5 12.0005C16.5 11.3531 15.7499 10.9443 14.2497 10.1267L12.7815 9.32643C11.5348 8.64699 10.9115 8.30727 10.4558 8.61431C10 8.92135 10 9.68099 10 11.2003Z" fill="white"/>
</g>
</svg>

<svg xmlns="http://www.w3.org/2000/svg" width="25" height="24" fill="none" viewBox="0 0 25 24"><g opacity=".9"><path stroke="#fff" stroke-width="1.5" d="M12.5 22c5.523 0 10-4.477 10-10s-4.477-10-10-10-10 4.478-10 10 4.477 10 10 10Z"/><path fill="#fff" d="M10 11.2v1.6c0 1.52 0 2.28.456 2.587s1.079-.033 2.326-.712l1.468-.8c1.5-.818 2.25-1.227 2.25-1.874 0-.648-.75-1.057-2.25-1.874l-1.469-.8c-1.246-.68-1.87-1.02-2.325-.713S10 9.681 10 11.2"/></g></svg>
